!!!!SEGMENT: pl-cz--iii-554--001-004_raszek-waclaw--missa-ex-c-qui-tollis.krn
!!!cenid: 17xx:1025
!!!COM: Raszek, Wacław
!!!COM-rismid: pe30020314
!!!CDT: <1848->1848
!!!CNT:
!!!OPR: Missa ex C
!!!OTL: Qui tollis
!!!OMV: 004
!!!PDT: 1780
!!!AGN: Sacred; Mass
!!!SMS-siglum: PL-CZ
!!!SMS-shelfmark: III-554
!!!SMS-shelfwork: 001-004 M
!!!SMS-variant:
!!!SMS-altvar:
!!!NIFC-rismid: 300001043
!!!URL-scan: http://repozytorium.nifc.pl/skany/pl-cz-nut--iii-554
!!!ONB-nifc: UWAGA: części Mszy: Kyrie, Gloria, Laudamus, Qui tollis, Quoniam, Cum sancto spiritu, Credo, Et incarnatus, Et resurrexit, Sanctus, Benedictus, Agnus Dei, Dona nobis
!!!AIN: 1 alto 1 bass 1 cbass 2 oboe 1 organ 1 soprn 1 tenor 2 tromp 1 viola 2 violn
!!!key: g
**kern	**kern	**dynam	**kern	**dynam	**kern	**dynam	**kern	**dynam	**kern	**text	**dynam	**kern	**text	**dynam	**kern	**text	**dynam	**kern	**text	**dynam	**kern	**kern	**kern	**dynam	**kern	**dynam
*	*group4	*	*group4	*	*group4	*	*group4	*	*group3	*	*	*group3	*	*	*group3	*	*	*group3	*	*	*group2	*group2	*group1	*	*group1	*
*part13	*part12	*part12	*part11	*part11	*part10	*part10	*part9	*part9	*part8	*part8	*part8	*part7	*part7	*part7	*part6	*part6	*part6	*part5	*part5	*part5	*part4	*part3	*part2	*part2	*part1	*part1
*staff13	*staff12	*	*staff11	*	*staff10	*	*staff9	*	*staff8	*staff8	*	*staff7	*staff7	*	*staff6	*staff6	*	*staff5	*staff5	*	*staff4	*staff3	*staff2	*	*staff1	*
*I"Organo Concertato	*I"Violone.	*	*I"Viola di Alto. oblig.	*	*I"Violino 2do.	*	*I"Violino 1mo.	*	*I"Basſo.	*	*	*I"Tenore.	*	*	*I"Alto.	*	*	*I"Canto.	*	*	*I"Clarino 2.do Ex C.	*I"Clarino 1.mo Ex C.	*I"Oboe Secundo.	*	*I"Oboe Primo.	*
*I'org	*I'vlne	*	*I'a-vla	*	*I'vl 2	*	*I'vl 1	*	*I'B	*	*	*I'T	*	*	*I'A	*	*	*I'S	*	*	*I'clno 2 in C	*I'clno 1 in C	*I'ob 2	*	*I'ob 1	*
*Iorgan	*Icbass	*	*Iviola	*	*Ivioln	*	*Ivioln	*	*Ibass	*	*	*Itenor	*	*	*Ialto	*	*	*Isoprn	*	*	*Itromp	*Itromp	*Ioboe	*	*Ioboe	*
*ICklav	*ICstr	*	*ICstr	*	*ICstr	*	*ICstr	*	*ICvox	*	*	*ICvox	*	*	*ICvox	*	*	*ICvox	*	*	*ICbras	*ICbras	*ICww	*	*ICww	*
*IGcont	*	*	*	*	*	*	*	*	*IGcoro	*	*	*IGcoro	*	*	*	*	*	*	*	*	*	*	*	*	*	*
*	*clefF4	*	*clefC3	*	*clefG2	*	*clefG2	*	*clefF4	*	*	*clefC4	*	*	*clefC3	*	*	*clefC1	*	*	*	*	*clefG2	*	*clefG2	*
*	*Trd0c0	*	*	*	*	*	*	*	*	*	*	*	*	*	*	*	*	*	*	*	*	*	*	*	*	*
*	*k[b-e-]	*	*k[b-e-]	*	*k[b-e-]	*	*k[b-e-]	*	*k[b-e-]	*	*	*k[b-e-]	*	*	*k[b-e-]	*	*	*k[b-e-]	*	*	*	*	*k[b-e-]	*	*k[b-e-]	*
*	*g:	*	*g:	*	*g:	*	*g:	*	*g:	*	*	*g:	*	*	*g:	*	*	*g:	*	*	*	*	*g:	*	*g:	*
*	*M2/2	*	*M2/2	*	*M2/2	*	*M2/2	*	*M2/2	*	*	*M2/2	*	*	*M2/2	*	*	*M2/2	*	*	*	*	*M2/2	*	*M2/2	*
*	*met(C.)	*	*met(C.)	*	*met(C.)	*	*met(C.)	*	*met(C.)	*	*	*met(C.)	*	*	*met(C.)	*	*	*met(C.)	*	*	*	*	*met(C.)	*	*met(C.)	*
*	*all\right	*	*all\right	*	*all\right	*	*all\right	*	*all\right	*	*	*all\right	*	*	*all\right	*	*	*all\right	*	*	*	*	*all\right	*	*all\right	*
=1	=1	=1	=1	=1	=1	=1	=1	=1	=1	=1	=1	=1	=1	=1	=1	=1	=1	=1	=1	=1	=1	=1	=1	=1	=1	=1
!LO:TX:t=P:problem=zgodnie z RISM "org missing"	!LO:TX:a:B:t=Ada&colon;	!	!LO:TX:a:B:t=Ada&colon;	!	!LO:TX:a:B:t=Adag.	!	!LO:TX:a:B:t=adagio&colon;	!LO:DY:rj:t=pia&colon;	!LO:TX:a:B:t=Ada&colon;	!	!	!LO:TX:a:B:t=Ada.	!	!	!LO:TX:a:B:t=Ada.	!	!	!LO:TX:a:B:t=Ada&colon;	!	!	!LO:TX:a:t=Qui tollis Tacet	!LO:TX:a:t=Qui tollis Tacet	!LO:TX:a:B:t=Ada&colon;	!	!LO:TX:a:B:t=Ada&colon;	!
1ryy	4G\	.	4d\	p	4b-/	p	16r	p	00r	.	.	00r	.	.	00r	.	.	00r	.	.	1ryy	1ryy	00r	.	00r	.
.	.	.	.	.	.	.	16dd\LL	.	.	.	.	.	.	.	.	.	.	.	.	.	.	.	.	.	.	.
.	.	.	.	.	.	.	16ee-\	.	.	.	.	.	.	.	.	.	.	.	.	.	.	.	.	.	.	.
.	.	.	.	.	.	.	16dd\JJ	.	.	.	.	.	.	.	.	.	.	.	.	.	.	.	.	.	.	.
.	4r	.	4r	.	4r	.	16cc/LL	.	.	.	.	.	.	.	.	.	.	.	.	.	.	.	.	.	.	.
.	.	.	.	.	.	.	16b-/	.	.	.	.	.	.	.	.	.	.	.	.	.	.	.	.	.	.	.
.	.	.	.	.	.	.	16a/	.	.	.	.	.	.	.	.	.	.	.	.	.	.	.	.	.	.	.
.	.	.	.	.	.	.	16g/JJ	.	.	.	.	.	.	.	.	.	.	.	.	.	.	.	.	.	.	.
!	!	!	!	!	!	!	!	!LO:DY:a:t=for&colon;	!	!	!	!	!	!	!	!	!	!	!	!	!	!	!	!	!	!
.	8r	.	8r	.	8r	.	16f#X/LL	f	.	.	.	.	.	.	.	.	.	.	.	.	.	.	.	.	.	.
.	.	.	.	.	.	.	16g/	.	.	.	.	.	.	.	.	.	.	.	.	.	.	.	.	.	.	.
!	!	!	!	!LO:DY:a	!	!LO:DY:a:t=for&colon;	!	!	!	!	!	!	!	!	!	!	!	!	!	!	!	!	!	!	!	!
.	8B-\L	.	8d\L	f	8g/L	f	16d/	.	.	.	.	.	.	.	.	.	.	.	.	.	.	.	.	.	.	.
.	.	.	.	.	.	.	16g/JJ	.	.	.	.	.	.	.	.	.	.	.	.	.	.	.	.	.	.	.
!	!	!	!	!	!	!	!LO:N:vis=16.	!	!	!	!	!	!	!	!	!	!	!	!	!	!	!	!	!	!	!
.	8A\	.	8d\	.	8f#X/	.	16a/LL	.	.	.	.	.	.	.	.	.	.	.	.	.	.	.	.	.	.	.
.	.	.	.	.	.	.	16d/	.	.	.	.	.	.	.	.	.	.	.	.	.	.	.	.	.	.	.
.	8G\J	.	8d\J	.	8g/J	.	16b-/	.	.	.	.	.	.	.	.	.	.	.	.	.	.	.	.	.	.	.
.	.	.	.	.	.	.	16d/JJ	.	.	.	.	.	.	.	.	.	.	.	.	.	.	.	.	.	.	.
=2	=2	=2	=2	=2	=2	=2	=2	=2	=2	=2	=2	=2	=2	=2	=2	=2	=2	=2	=2	=2	=2	=2	=2	=2	=2	=2
!	!LO:TX:t=P:problem=mixed beam	!	!	!	!	!	!	!	!	!	!	!	!	!	!	!	!	!	!	!	!	!	!	!	!	!
1ryy	8D\L	.	8d\L	.	8g/L	.	8b-T/L	.	.	.	.	.	.	.	.	.	.	.	.	.	1ryy	1ryy	.	.	.	.
!	!	!	!	!	!LO:SIC:v:s=8f#/J	!	!	!	!	!	!	!	!	!	!	!	!	!	!	!	!	!	!	!	!	!
.	8DD/J	.	8d\J	.	8f/J	.	8a/J	.	.	.	.	.	.	.	.	.	.	.	.	.	.	.	.	.	.	.
!	!	!	!	!LO:DY:a	!	!	!	!LO:DY:a	!	!	!	!	!	!	!	!	!	!	!	!	!	!	!	!	!	!
.	4DD/	.	4r	p	4r	.	4r	p	.	.	.	.	.	.	.	.	.	.	.	.	.	.	.	.	.	.
*	*	*	*	*	*	*	*Xtuplet	*	*	*	*	*	*	*	*	*	*	*	*	*	*	*	*	*	*	*
!	!	!LO:DY:a	!	!	!	!LO:DY:a	!	!	!	!	!	!	!	!	!	!	!	!	!	!	!	!	!	!	!	!
.	8D\	p	8f#X\	.	8a/	p	24dd\LL	.	.	.	.	.	.	.	.	.	.	.	.	.	.	.	.	.	.	.
.	.	.	.	.	.	.	24aa\	.	.	.	.	.	.	.	.	.	.	.	.	.	.	.	.	.	.	.
.	.	.	.	.	.	.	24gg\JJ	.	.	.	.	.	.	.	.	.	.	.	.	.	.	.	.	.	.	.
.	8r	.	8r	.	8r	.	24ff#X\LL	.	.	.	.	.	.	.	.	.	.	.	.	.	.	.	.	.	.	.
.	.	.	.	.	.	.	24ee-\	.	.	.	.	.	.	.	.	.	.	.	.	.	.	.	.	.	.	.
.	.	.	.	.	.	.	24dd\JJ	.	.	.	.	.	.	.	.	.	.	.	.	.	.	.	.	.	.	.
.	8F#X\	.	8d\	.	8a/	.	24cc\LL	.	.	.	.	.	.	.	.	.	.	.	.	.	.	.	.	.	.	.
.	.	.	.	.	.	.	24ee-\	.	.	.	.	.	.	.	.	.	.	.	.	.	.	.	.	.	.	.
.	.	.	.	.	.	.	24dd\JJ	.	.	.	.	.	.	.	.	.	.	.	.	.	.	.	.	.	.	.
.	8r	.	8r	.	8r	.	24cc\LL	.	.	.	.	.	.	.	.	.	.	.	.	.	.	.	.	.	.	.
.	.	.	.	.	.	.	24b-\	.	.	.	.	.	.	.	.	.	.	.	.	.	.	.	.	.	.	.
.	.	.	.	.	.	.	24a\JJ	.	.	.	.	.	.	.	.	.	.	.	.	.	.	.	.	.	.	.
=3	=3	=3	=3	=3	=3	=3	=3	=3	=3	=3	=3	=3	=3	=3	=3	=3	=3	=3	=3	=3	=3	=3	=3	=3	=3	=3
1ryy	8G\	.	8d\	.	8d/	.	24b-\LL	.	.	.	.	.	.	.	.	.	.	.	.	.	1ryy	1ryy	.	.	.	.
.	.	.	.	.	.	.	24bb-\	.	.	.	.	.	.	.	.	.	.	.	.	.	.	.	.	.	.	.
.	.	.	.	.	.	.	24aa\JJ	.	.	.	.	.	.	.	.	.	.	.	.	.	.	.	.	.	.	.
.	8r	.	8r	.	8r	.	24gg\LL	.	.	.	.	.	.	.	.	.	.	.	.	.	.	.	.	.	.	.
.	.	.	.	.	.	.	24ff#X\	.	.	.	.	.	.	.	.	.	.	.	.	.	.	.	.	.	.	.
.	.	.	.	.	.	.	24gg\JJ	.	.	.	.	.	.	.	.	.	.	.	.	.	.	.	.	.	.	.
*	*	*	*	*	*Xtuplet	*	*	*	*	*	*	*	*	*	*	*	*	*	*	*	*	*	*	*	*	*
.	8B-\	.	8d\	.	24g/LL	.	4dd\	.	.	.	.	.	.	.	.	.	.	.	.	.	.	.	.	.	.	.
.	.	.	.	.	24b-/	.	.	.	.	.	.	.	.	.	.	.	.	.	.	.	.	.	.	.	.	.
.	.	.	.	.	24a/JJ	.	.	.	.	.	.	.	.	.	.	.	.	.	.	.	.	.	.	.	.	.
.	8r	.	8r	.	24g/LL	.	.	.	.	.	.	.	.	.	.	.	.	.	.	.	.	.	.	.	.	.
.	.	.	.	.	24f#X/	.	.	.	.	.	.	.	.	.	.	.	.	.	.	.	.	.	.	.	.	.
.	.	.	.	.	24g/JJ	.	.	.	.	.	.	.	.	.	.	.	.	.	.	.	.	.	.	.	.	.
!	!LO:TX:t=P:problem=mixed beam	!	!	!	!	!	!	!	!	!	!	!	!	!	!	!	!	!	!	!	!	!	!	!	!	!
.	8c\L	.	8c/L	.	8g/L	.	24ee-\LL	.	.	.	.	.	.	.	.	.	.	.	.	.	.	.	.	.	.	.
.	.	.	.	.	.	.	24dd\	.	.	.	.	.	.	.	.	.	.	.	.	.	.	.	.	.	.	.
.	.	.	.	.	.	.	24ee-\JJ	.	.	.	.	.	.	.	.	.	.	.	.	.	.	.	.	.	.	.
!	!	!	!	!	!	!	!LO:SIC:v:s=8qffn/	!	!	!	!	!	!	!	!	!	!	!	!	!	!	!	!	!	!	!
.	.	.	.	.	.	.	8qff#/	.	.	.	.	.	.	.	.	.	.	.	.	.	.	.	.	.	.	.
.	8C/	.	8c/	.	8g/	.	24ee-\LL	.	.	.	.	.	.	.	.	.	.	.	.	.	.	.	.	.	.	.
.	.	.	.	.	.	.	24dd\	.	.	.	.	.	.	.	.	.	.	.	.	.	.	.	.	.	.	.
.	.	.	.	.	.	.	24cc\JJ	.	.	.	.	.	.	.	.	.	.	.	.	.	.	.	.	.	.	.
.	8D/	.	8d/	.	8g/	.	8b-/L	.	.	.	.	.	.	.	.	.	.	.	.	.	.	.	.	.	.	.
*	*	*	*	*	*	*	*custos:g	*	*	*	*	*	*	*	*	*	*	*	*	*	*	*	*	*	*	*
!	!	!	!	!	!	!	!LO:TX:a:t=t	!	!	!	!	!	!	!	!	!	!	!	!	!	!	!	!	!	!	!
.	8D/J	.	8d/J	.	8f#X/J	.	8a/J	.	.	.	.	.	.	.	.	.	.	.	.	.	.	.	.	.	.	.
!	!	!	!	!	!	!	!LO:LB:g=original	!	!	!	!	!	!	!	!	!	!	!	!	!	!	!	!	!	!	!
=4	=4	=4	=4	=4	=4	=4	=4	=4	=4	=4	=4	=4	=4	=4	=4	=4	=4	=4	=4	=4	=4	=4	=4	=4	=4	=4
!	!	!	!	!LO:DY:a	!	!	!	!LO:DY:a:t=for&colon;	!	!	!	!	!	!	!	!	!	!	!	!	!	!	!	!	!	!
1ryy	8GG/	.	8d/	f	8g/	.	24g/LL	f	.	.	.	.	.	.	.	.	.	.	.	.	1ryy	1ryy	.	.	.	.
.	.	.	.	.	.	.	24b-/	.	.	.	.	.	.	.	.	.	.	.	.	.	.	.	.	.	.	.
.	.	.	.	.	.	.	24dd/JJ	.	.	.	.	.	.	.	.	.	.	.	.	.	.	.	.	.	.	.
.	8r	.	8r	.	8r	.	24gg\LL	.	.	.	.	.	.	.	.	.	.	.	.	.	.	.	.	.	.	.
.	.	.	.	.	.	.	24bb-\	.	.	.	.	.	.	.	.	.	.	.	.	.	.	.	.	.	.	.
.	.	.	.	.	.	.	24aa\JJ	.	.	.	.	.	.	.	.	.	.	.	.	.	.	.	.	.	.	.
.	4r	.	4r	.	4r	.	24gg\LL	.	.	.	.	.	.	.	.	.	.	.	.	.	.	.	.	.	.	.
.	.	.	.	.	.	.	24dd\	.	.	.	.	.	.	.	.	.	.	.	.	.	.	.	.	.	.	.
.	.	.	.	.	.	.	24b-\JJ	.	.	.	.	.	.	.	.	.	.	.	.	.	.	.	.	.	.	.
.	.	.	.	.	.	.	24dd\LL	.	.	.	.	.	.	.	.	.	.	.	.	.	.	.	.	.	.	.
.	.	.	.	.	.	.	24b-\	.	.	.	.	.	.	.	.	.	.	.	.	.	.	.	.	.	.	.
.	.	.	.	.	.	.	24g\JJ	.	.	.	.	.	.	.	.	.	.	.	.	.	.	.	.	.	.	.
!	!LO:TX:t=P:problem=mixed beam	!	!	!	!	!	!	!	!	!	!	!	!	!	!	!	!	!	!	!	!	!	!	!	!	!
.	8GG/L	.	8G/L	.	8B-/L	.	24b-/LL	.	.	.	.	.	.	.	.	.	.	.	.	.	.	.	.	.	.	.
.	.	.	.	.	.	.	24g/	.	.	.	.	.	.	.	.	.	.	.	.	.	.	.	.	.	.	.
.	.	.	.	.	.	.	24d/JJ	.	.	.	.	.	.	.	.	.	.	.	.	.	.	.	.	.	.	.
.	8G\	.	8G/	.	8B-/	.	24g/LL	.	.	.	.	.	.	.	.	.	.	.	.	.	.	.	.	.	.	.
.	.	.	.	.	.	.	24d/	.	.	.	.	.	.	.	.	.	.	.	.	.	.	.	.	.	.	.
.	.	.	.	.	.	.	24B-/JJ	.	.	.	.	.	.	.	.	.	.	.	.	.	.	.	.	.	.	.
.	8GG/J	.	8G/J	.	8B-/J	.	8G/	.	.	.	.	.	.	.	.	.	.	.	.	.	.	.	.	.	.	.
.	8r	.	8r	.	8r	.	8r	.	.	.	.	.	.	.	.	.	.	.	.	.	.	.	.	.	.	.
=5	=5	=5	=5	=5	=5	=5	=5	=5	=5	=5	=5	=5	=5	=5	=5	=5	=5	=5	=5	=5	=5	=5	=5	=5	=5	=5
!	!	!	!	!LO:DY:a	!	!LO:DY:a:t=pia&colon;	!	!LO:DY:a	!LO:TX:a:t=T.	!	!	!LO:TX:a:t=T.	!	!	!LO:TX:a:t=T.	!	!	!LO:TX:a:t=T.	!	!	!	!	!	!LO:DY:a	!	!LO:DY:a:t=pia&colon;
1ryy	8GG/	.	4d\	p	4b-\	p	16r	p	4G\	Qui	.	4B-\	Qui	.	4g\	Qui	.	4dd\	Qui	.	1ryy	1ryy	4b-\	p	4dd\	p
.	.	.	.	.	.	.	16dd\LL	.	.	.	.	.	.	.	.	.	.	.	.	.	.	.	.	.	.	.
.	8r	.	.	.	.	.	16ee-\	.	.	.	.	.	.	.	.	.	.	.	.	.	.	.	.	.	.	.
.	.	.	.	.	.	.	16dd\JJ	.	.	.	.	.	.	.	.	.	.	.	.	.	.	.	.	.	.	.
.	4r	.	4r	.	4r	.	16cc\LL	.	4r	.	.	4r	.	.	4r	.	.	4r	.	.	.	.	4r	.	4ryy	.
.	.	.	.	.	.	.	16b-\	.	.	.	.	.	.	.	.	.	.	.	.	.	.	.	.	.	.	.
.	.	.	.	.	.	.	16a\	.	.	.	.	.	.	.	.	.	.	.	.	.	.	.	.	.	.	.
.	.	.	.	.	.	.	16g\JJ	.	.	.	.	.	.	.	.	.	.	.	.	.	.	.	.	.	.	.
!	!	!LO:DY:a	!	!	!	!	!	!LO:DY:a	!	!	!	!	!	!	!	!	!	!	!	!	!	!	!	!	!	!
.	8r	f	8r	.	8r	.	16f#X/LL	f	8r	.	.	8r	.	.	8r	.	.	8r	.	.	.	.	8r	.	8r	.
.	.	.	.	.	.	.	16g/	.	.	.	.	.	.	.	.	.	.	.	.	.	.	.	.	.	.	.
!	!	!	!	!LO:DY:a	!	!LO:DY:a	!	!	!	!	!	!	!	!	!	!	!	!	!	!	!	!	!	!LO:DY:a	!	!LO:DY:a
.	8B-\L	.	8d\L	f	8g/L	f	16d/	.	8B-\	tol-	.	8G/	tol-	.	8d\	tol-	.	8g\	tol-	.	.	.	8d/L	f	8g/L	f
.	.	.	.	.	.	.	16g/JJ	.	.	.	.	.	.	.	.	.	.	.	.	.	.	.	.	.	.	.
.	8A\	.	8d\	.	8f#X/	.	16a/LL	.	8A\	-liſ	.	8F#X/	-liſ	.	8d\	-lis	.	8a\	-lis	.	.	.	8d/	.	8a/	.
.	.	.	.	.	.	.	16d/	.	.	.	.	.	.	.	.	.	.	.	.	.	.	.	.	.	.	.
.	8G\J	.	8d\J	.	8g/J	.	16b-/	.	8G\	pec-	.	8G/	pec-	.	8d\	pec-	.	8b-\	pec-	.	.	.	8d/J	.	8b-/J	.
.	.	.	.	.	.	.	16d/JJ	.	.	.	.	.	.	.	.	.	.	.	.	.	.	.	.	.	.	.
!	!	!	!	!	!LO:LB:g=original	!	!	!	!	!	!	!	!	!	!	!	!	!	!	!	!	!	!	!	!	!
=6	=6	=6	=6	=6	=6	=6	=6	=6	=6	=6	=6	=6	=6	=6	=6	=6	=6	=6	=6	=6	=6	=6	=6	=6	=6	=6
!	!LO:TX:t=P:problem=mixed beam	!	!	!	!	!	!	!	!	!	!	!	!	!	!	!	!	!	!	!	!	!	!	!	!	!
1ryy	8d\L	.	8d\L	.	8g/L	.	8b-T/L	.	8d\	-ca-	.	8G/	-ca-	.	8d\	-ca-	.	8b-\	-ca-	.	1ryy	1ryy	8g/L	.	8b-/L	.
.	8D/J	.	8d\J	.	8f#X/J	.	8a/J	.	8D/	-ta	.	8F#X/	-ta	.	8d\	-ta	.	8a\	-ta	.	.	.	8f#X/J	.	8a/J	.
!	!	!	!	!	!	!	!	!LO:DY:a	!	!	!	!	!	!	!	!	!	!	!	!	!	!	!	!	!	!
.	4DD/	.	4r	.	4r	.	4r	p	4r	.	.	4r	.	.	4r	.	.	4r	.	.	.	.	4f#/	.	4a/	.
!	!	!LO:DY:a	!	!LO:DY:a	!	!LO:DY:a	!	!	!	!	!	!	!	!	!	!	!LO:DY:a	!	!	!	!	!	!	!LO:DY:a	!	!LO:DY:a
.	8D\	p	8f#X\	p	8a/	p	24dd\LL	.	4r	.	.	4r	.	.	4r	.	p	4r	.	.	.	.	4a/	p	4cc\	p
.	.	.	.	.	.	.	24aa\	.	.	.	.	.	.	.	.	.	.	.	.	.	.	.	.	.	.	.
.	.	.	.	.	.	.	24gg\JJ	.	.	.	.	.	.	.	.	.	.	.	.	.	.	.	.	.	.	.
.	8r	.	8r	.	8r	.	24ff#X\LL	.	.	.	.	.	.	.	.	.	.	.	.	.	.	.	.	.	.	.
.	.	.	.	.	.	.	24ee-\	.	.	.	.	.	.	.	.	.	.	.	.	.	.	.	.	.	.	.
.	.	.	.	.	.	.	24dd\JJ	.	.	.	.	.	.	.	.	.	.	.	.	.	.	.	.	.	.	.
*	*	*	*	*	*	*	*	*	*	*ij	*	*	*ij	*	*	*	*	*	*	*	*	*	*	*	*	*
!	!	!	!	!	!	!	!	!	!	!	!LO:DY:a	!	!	!LO:DY:a	!	!	!	!	!	!LO:DY:a:rj	!	!	!	!	!	!
.	8F#X\	.	8d\	.	8a/	.	24cc\LL	.	4F#X\	pec-	p	4A\	pec-	p	4d\	pec-	.	4cc\	pec-	p	.	.	4a/	.	4cc\	.
.	.	.	.	.	.	.	24ee-\	.	.	.	.	.	.	.	.	.	.	.	.	.	.	.	.	.	.	.
.	.	.	.	.	.	.	24dd\JJ	.	.	.	.	.	.	.	.	.	.	.	.	.	.	.	.	.	.	.
*	*	*	*custos:d	*	*	*	*	*	*	*	*	*	*	*	*	*	*	*	*	*	*	*	*	*	*	*
.	8r	.	8r	.	8r	.	24cc\LL	.	.	.	.	.	.	.	.	.	.	.	.	.	.	.	.	.	.	.
.	.	.	.	.	.	.	24b-\	.	.	.	.	.	.	.	.	.	.	.	.	.	.	.	.	.	.	.
.	.	.	.	.	.	.	24a\JJ	.	.	.	.	.	.	.	.	.	.	.	.	.	.	.	.	.	.	.
!	!LO:LB:g=original	!	!LO:LB:g=original	!	!	!	!	!	!	!	!	!	!	!	!	!	!	!	!	!	!	!	!	!	!	!
=7	=7	=7	=7	=7	=7	=7	=7	=7	=7	=7	=7	=7	=7	=7	=7	=7	=7	=7	=7	=7	=7	=7	=7	=7	=7	=7
1ryy	8G\	.	8d\	.	8d/	.	24b-\LL	.	4G\	-ca-	.	4G/	-ca-	.	4d\	-ca-	.	4b-\	-ca-	.	1ryy	1ryy	4d/	.	4b-\	.
.	.	.	.	.	.	.	24bb-\	.	.	.	.	.	.	.	.	.	.	.	.	.	.	.	.	.	.	.
.	.	.	.	.	.	.	24aa\JJ	.	.	.	.	.	.	.	.	.	.	.	.	.	.	.	.	.	.	.
.	8r	.	8r	.	8r	.	24gg\LL	.	.	.	.	.	.	.	.	.	.	.	.	.	.	.	.	.	.	.
.	.	.	.	.	.	.	24ff#X\	.	.	.	.	.	.	.	.	.	.	.	.	.	.	.	.	.	.	.
.	.	.	.	.	.	.	24gg\JJ	.	.	.	.	.	.	.	.	.	.	.	.	.	.	.	.	.	.	.
.	8B-\	.	8d\	.	24g/LL	.	4dd\	.	4BB-/	-ta	.	4B-\	-ta	.	4g\	-ta	.	4dd\	-ta	.	.	.	4g/	.	4dd\	.
.	.	.	.	.	24b-/	.	.	.	.	.	.	.	.	.	.	.	.	.	.	.	.	.	.	.	.	.
.	.	.	.	.	24a/JJ	.	.	.	.	.	.	.	.	.	.	.	.	.	.	.	.	.	.	.	.	.
.	8r	.	8r	.	24g/LL	.	.	.	.	.	.	.	.	.	.	.	.	.	.	.	.	.	.	.	.	.
.	.	.	.	.	24f#X/	.	.	.	.	.	.	.	.	.	.	.	.	.	.	.	.	.	.	.	.	.
.	.	.	.	.	24g/JJ	.	.	.	.	.	.	.	.	.	.	.	.	.	.	.	.	.	.	.	.	.
!	!LO:TX:t=P:problem=mixed beam	!	!	!	!	!	!	!	!	!	!	!	!	!	!	!	!	!	!	!	!	!	!	!	!	!
.	8c\L	.	8c\L	.	8g/L	.	8ee-X\L	.	8r	.	.	8r	.	.	8r	.	.	8r	.	.	.	.	8r	.	8r	.
*	*	*	*	*	*	*	*	*	*	*	*	*	*	*	*	*	*	*	*ij	*	*	*	*	*	*	*
.	8c\	.	8e-X\	.	8g/	.	16ee-\L	.	8C/	pec-	.	8c\	pec-	.	8g\	pec-	.	16ee-\LL	pec-	.	.	.	8g/L	.	8ee-X\L	.
.	.	.	.	.	.	.	16dd\JJ	.	.	.	.	.	.	.	.	.	.	16dd\JJ	.	.	.	.	.	.	.	.
!	!	!	!	!	!	!	!LO:LB:g=original	!	!	!	!	!	!	!	!	!	!	!	!	!	!	!	!	!	!	!
.	8C/	.	8e-\	.	8e-/	.	16cc\LL	.	8C/	-ca-	.	8c\	-ca-	.	8e-\	-ca-	.	16cc\LL	-ca-	.	.	.	8a/	.	8ee-\	.
.	.	.	.	.	.	.	16b-\	.	.	.	.	.	.	.	.	.	.	16b-\JJ	.	.	.	.	.	.	.	.
.	8C/J	.	8e-\J	.	8e-/J	.	16a\	.	8C/	-ta	.	8A\	-ta	.	8e-\	-ta	.	16a\LL	-ta	.	.	.	8g/J	.	8ee-\J	.
*	*	*	*	*	*	*	*	*	*	*Xij	*	*	*Xij	*	*	*	*	*	*Xij	*	*	*	*	*	*	*
.	.	.	.	.	.	.	16g\JJ	.	.	.	.	.	.	.	.	.	.	16g\JJ	.	.	.	.	.	.	.	.
=8	=8	=8	=8	=8	=8	=8	=8	=8	=8	=8	=8	=8	=8	=8	=8	=8	=8	=8	=8	=8	=8	=8	=8	=8	=8	=8
!	!	!	!	!LO:DY:a	!	!	!	!LO:DY:a	!	!	!	!	!	!LO:DY:a	!	!	!LO:DY:a	!	!	!LO:DY:a	!	!	!	!	!	!
1ryy	8D\L	.	8d\L	f	8B-/L	.	8g/L	f	8D\	mun-	.	8B-\	mun-	f	8d\	mun-	f	8g\	mun-	f	1ryy	1ryy	8g/L	.	8b-/L	.
.	8d\J	.	8d\J	.	8A/J	.	8f#X/J	.	8D\	-di	.	8A\	-di.	.	8d\	-di	.	8f#X/	-di	.	.	.	8f#X/J	.	8a/J	.
!	!	!	!	!	!	!LO:DY:a	!	!	!	!	!	!	!	!	!	!	!	!	!	!	!	!	!	!	!	!
.	4D\	.	4d\	.	24d/LL	f	24d/LL	.	4r	.	.	4r	.	.	4r	.	.	4r	.	.	.	.	4f#/	.	4a/	.
.	.	.	.	.	24f#X/	.	24f#/	.	.	.	.	.	.	.	.	.	.	.	.	.	.	.	.	.	.	.
.	.	.	.	.	24a/JJ	.	24a/JJ	.	.	.	.	.	.	.	.	.	.	.	.	.	.	.	.	.	.	.
.	.	.	.	.	24dd\LL	.	24dd/LL	.	.	.	.	.	.	.	.	.	.	.	.	.	.	.	.	.	.	.
.	.	.	.	.	24a\	.	24a/	.	.	.	.	.	.	.	.	.	.	.	.	.	.	.	.	.	.	.
.	.	.	.	.	24f#\JJ	.	24f#/JJ	.	.	.	.	.	.	.	.	.	.	.	.	.	.	.	.	.	.	.
*	*Xtuplet	*	*Xtuplet	*	*	*	*	*	*	*	*	*	*	*	*	*	*	*	*	*	*	*	*	*	*	*
!	!	!LO:DY:a	!	!	!	!	!	!	!	!	!	!	!	!	!	!	!	!	!	!	!	!	!	!	!	!
.	24D\LL	f	24d\LL	.	4d/	.	4d/	.	2r	.	.	2r	.	.	2r	.	.	2r	.	.	.	.	4f#/	.	4a/	.
.	24F#X\	.	24f#X\	.	.	.	.	.	.	.	.	.	.	.	.	.	.	.	.	.	.	.	.	.	.	.
.	24A\JJ	.	24a\JJ	.	.	.	.	.	.	.	.	.	.	.	.	.	.	.	.	.	.	.	.	.	.	.
.	24d\LL	.	24dd\LL	.	.	.	.	.	.	.	.	.	.	.	.	.	.	.	.	.	.	.	.	.	.	.
.	24A\	.	24a\	.	.	.	.	.	.	.	.	.	.	.	.	.	.	.	.	.	.	.	.	.	.	.
.	24F#X\JJ	.	24f#\JJ	.	.	.	.	.	.	.	.	.	.	.	.	.	.	.	.	.	.	.	.	.	.	.
.	8D/L	.	8d\L	.	4r	.	4r	.	.	.	.	.	.	.	.	.	.	.	.	.	.	.	4r	.	4r	.
.	8C/J	.	8c\J	.	.	.	.	.	.	.	.	.	.	.	.	.	.	.	.	.	.	.	.	.	.	.
=9	=9	=9	=9	=9	=9	=9	=9	=9	=9	=9	=9	=9	=9	=9	=9	=9	=9	=9	=9	=9	=9	=9	=9	=9	=9	=9
!	!	!LO:DY:a	!	!LO:DY:a:t=pia&colon;	!	!	!	!LO:DY:a	!	!	!	!	!	!	!	!	!	!	!	!	!	!	!	!LO:DY:a:t=pia&colon;	!	!LO:DY:a
1ryy	8BB-/	p	8B-/	p	8d/	.	16r	p	0r	.	.	0r	.	.	0r	.	.	1r	.	.	1ryy	1ryy	32ff\LLL	p	32ff\LLL	pp
.	.	.	.	.	.	.	.	.	.	.	.	.	.	.	.	.	.	.	.	.	.	.	32een\	.	32een\	.
.	.	.	.	.	.	.	16ffn\LL	.	.	.	.	.	.	.	.	.	.	.	.	.	.	.	32ff\	.	32ff\	.
.	.	.	.	.	.	.	.	.	.	.	.	.	.	.	.	.	.	.	.	.	.	.	32gg\JJ	.	32gg\JJ	.
.	8r	.	8r	.	8r	.	16dd\	.	.	.	.	.	.	.	.	.	.	.	.	.	.	.	8ff\J	.	8ff\J	.
.	.	.	.	.	.	.	16b-\JJ	.	.	.	.	.	.	.	.	.	.	.	.	.	.	.	.	.	.	.
*	*	*	*	*	*	*	*	*	*	*	*	*	*	*	*	*	*	*	*	*	*	*	*	*	*2\right	*
.	8Fn\	.	16r	.	16r	.	8a/	.	.	.	.	.	.	.	.	.	.	.	.	.	.	.	4ff\	.	2.ff\	.
.	.	.	16c/LL	.	16e-/LL	.	.	.	.	.	.	.	.	.	.	.	.	.	.	.	.	.	.	.	.	.
.	8r	.	16A/	.	16c/	.	8r	.	.	.	.	.	.	.	.	.	.	.	.	.	.	.	.	.	.	.
.	.	.	16c/JJ	.	16e-/JJ	.	.	.	.	.	.	.	.	.	.	.	.	.	.	.	.	.	.	.	.	.
*	*	*	*	*	*	*	*	*	*	*	*	*	*	*	*	*	*	*	*	*	*	*	*2\right	*	*	*
.	8BB-/	.	8B-/	.	8d/	.	16r	.	.	.	.	.	.	.	.	.	.	.	.	.	.	.	2ff\	.	.	.
.	.	.	.	.	.	.	16ff\	.	.	.	.	.	.	.	.	.	.	.	.	.	.	.	.	.	.	.
.	8r	.	8r	.	8r	.	32ee-\LLL	.	.	.	.	.	.	.	.	.	.	.	.	.	.	.	.	.	.	.
.	.	.	.	.	.	.	32dd\	.	.	.	.	.	.	.	.	.	.	.	.	.	.	.	.	.	.	.
.	.	.	.	.	.	.	32cc\	.	.	.	.	.	.	.	.	.	.	.	.	.	.	.	.	.	.	.
.	.	.	.	.	.	.	32b-\JJJ	.	.	.	.	.	.	.	.	.	.	.	.	.	.	.	.	.	.	.
.	8F\	.	16r	.	16r	.	8a/	.	.	.	.	.	.	.	.	.	.	.	.	.	.	.	.	.	.	.
.	.	.	16c/LL	.	16e-/LL	.	.	.	.	.	.	.	.	.	.	.	.	.	.	.	.	.	.	.	.	.
!	!	!	!	!	!	!	!LO:N:vis=8	!	!	!	!	!	!	!	!	!	!	!	!	!	!	!	!	!	!	!
.	8r	.	16A/	.	16c/	.	16r	.	.	.	.	.	.	.	.	.	.	.	.	.	.	.	.	.	.	.
!	!	!	!	!	!	!	!LO:N:vis=4	!	!	!	!	!	!	!	!	!	!	!	!	!	!	!	!	!	!	!
.	.	.	16c/JJ	.	16e-/JJ	.	16r	.	.	.	.	.	.	.	.	.	.	.	.	.	.	.	.	.	.	.
=10	=10	=10	=10	=10	=10	=10	=10	=10	=10	=10	=10	=10	=10	=10	=10	=10	=10	=10	=10	=10	=10	=10	=10	=10	=10	=10
1ryy	8BB-/	.	8B-/	.	8d/	.	16r	.	.	.	.	.	.	.	.	.	.	1r	.	.	1ryy	1ryy	4ff\	.	4ff\	.
.	.	.	.	.	.	.	16b-\LL	.	.	.	.	.	.	.	.	.	.	.	.	.	.	.	.	.	.	.
.	8r	.	8r	.	8r	.	16dd\	.	.	.	.	.	.	.	.	.	.	.	.	.	.	.	.	.	.	.
.	.	.	.	.	.	.	16ff\JJ	.	.	.	.	.	.	.	.	.	.	.	.	.	.	.	.	.	.	.
.	8BB-/	.	16r	.	16r	.	8aa-X\	.	.	.	.	.	.	.	.	.	.	.	.	.	.	.	4b-\	.	4b-\	.
.	.	.	16d\LL	.	16f/LL	.	.	.	.	.	.	.	.	.	.	.	.	.	.	.	.	.	.	.	.	.
.	8r	.	16B-\	.	16d/	.	8r	.	.	.	.	.	.	.	.	.	.	.	.	.	.	.	.	.	.	.
.	.	.	16d\JJ	.	16f/JJ	.	.	.	.	.	.	.	.	.	.	.	.	.	.	.	.	.	.	.	.	.
.	8E-\	.	8e-\	.	8g/	.	16r	.	.	.	.	.	.	.	.	.	.	.	.	.	.	.	4b-\	.	4b-\	.
.	.	.	.	.	.	.	16gg\LL	.	.	.	.	.	.	.	.	.	.	.	.	.	.	.	.	.	.	.
.	8r	.	8r	.	8r	.	16ee-\	.	.	.	.	.	.	.	.	.	.	.	.	.	.	.	.	.	.	.
.	.	.	.	.	.	.	16cc\JJ	.	.	.	.	.	.	.	.	.	.	.	.	.	.	.	.	.	.	.
.	8E-\L	.	8e-\L	.	8g/L	.	16bn\LL	.	.	.	.	.	.	.	.	.	.	.	.	.	.	.	4r	.	4r	.
.	.	.	.	.	.	.	16cc\	.	.	.	.	.	.	.	.	.	.	.	.	.	.	.	.	.	.	.
.	.	.	.	.	.	.	8qff/	.	.	.	.	.	.	.	.	.	.	.	.	.	.	.	.	.	.	.
.	8En\J	.	8e-\J	.	8g/J	.	24ee-\	.	.	.	.	.	.	.	.	.	.	.	.	.	.	.	.	.	.	.
.	.	.	.	.	.	.	24dd\	.	.	.	.	.	.	.	.	.	.	.	.	.	.	.	.	.	.	.
.	.	.	.	.	.	.	24cc\JJ	.	.	.	.	.	.	.	.	.	.	.	.	.	.	.	.	.	.	.
=11	=11	=11	=11	=11	=11	=11	=11	=11	=11	=11	=11	=11	=11	=11	=11	=11	=11	=11	=11	=11	=11	=11	=11	=11	=11	=11
!	!LO:TX:t=P:problem=mixed beam	!	!LO:TX:t=P:problem=mixed beam	!	!	!	!LO:TX:a:t=t	!	!	!	!	!	!	!	!	!	!LO:DY:a	!	!	!LO:DY:a	!	!	!	!	!	!
1ryy	8F\L	.	8f\L	.	8d/L	.	8b-/L	.	4r	.	.	4r	.	.	4r	.	p	4r	.	p	1ryy	1ryy	4r	.	4r	.
.	8FF/J	.	8F/J	.	8c/J	.	8a/J	.	.	.	.	.	.	.	.	.	.	.	.	.	.	.	.	.	.	.
!	!	!	!	!	!LO:LB:g=original	!	!	!	!	!	!	!LO:LB:g=original	!	!LO:DY:a	!LO:TX:t=P:problem=brak początku łuku	!	!	!	!	!	!	!	!	!LO:DY:a:t=pia&colon;	!	!
.	8F\	.	8f\	.	8a/	.	16r	.	(4F\	mi-	.	[4c\	mi-	p	(4a\	mi-	.	4ff\	mi-	.	.	.	4a\	p	4ff\	.
.	.	.	.	.	.	.	16ff\LL	.	.	.	.	.	.	.	.	.	.	.	.	.	.	.	.	.	.	.
.	8r	.	8r	.	8r	.	16ff\	.	.	.	.	.	.	.	.	.	.	.	.	.	.	.	.	.	.	.
.	.	.	.	.	.	.	16ff\JJ	.	.	.	.	.	.	.	.	.	.	.	.	.	.	.	.	.	.	.
!	!	!	!	!	!	!	!	!	!	!	!	!	!	!	!LO:LB:g=original	!	!	!	!	!	!	!	!	!	!	!
.	8A\	.	8c/	.	8f/	.	16r	.	4A\)	.	.	4c\]	.	.	4f\)	.	.	4ee-X\	.	.	.	.	4cc\	.	4ee-X\	.
.	.	.	.	.	.	.	16ee-X\LL	.	.	.	.	.	.	.	.	.	.	.	.	.	.	.	.	.	.	.
.	8r	.	8r	.	8r	.	16ee-\	.	.	.	.	.	.	.	.	.	.	.	.	.	.	.	.	.	.	.
.	.	.	.	.	.	.	16ee-\JJ	.	.	.	.	.	.	.	.	.	.	.	.	.	.	.	.	.	.	.
.	8B-\	.	8B-/	.	8f/	.	16r	.	4B-\	-ſe-	.	4B-\	-ſe-	.	4f\	-se-	.	4dd\	-se-	.	.	.	4b-\	.	4dd\	.
!	!	!	!	!	!	!	!LO:LB:g=original	!	!	!	!	!	!	!	!	!	!	!	!	!	!	!	!	!	!	!
.	.	.	.	.	.	.	16dd\LL	.	.	.	.	.	.	.	.	.	.	.	.	.	.	.	.	.	.	.
*	*custos:E	*	*	*	*	*	*	*	*	*	*	*	*	*	*	*	*	*	*	*	*	*	*	*	*	*
.	8r	.	8r	.	8r	.	16dd\	.	.	.	.	.	.	.	.	.	.	.	.	.	.	.	.	.	.	.
.	.	.	.	.	.	.	16dd\JJ	.	.	.	.	.	.	.	.	.	.	.	.	.	.	.	.	.	.	.
!	!LO:LB:g=original	!	!	!	!	!	!	!	!	!	!	!	!	!	!	!	!	!LO:LB:g=original	!	!	!	!	!	!	!	!
=12	=12	=12	=12	=12	=12	=12	=12	=12	=12	=12	=12	=12	=12	=12	=12	=12	=12	=12	=12	=12	=12	=12	=12	=12	=12	=12
1ryy	8E-\	.	8e-\	.	16r	.	16r	.	8E-\	-re-	.	8B-\	-re-	.	8g\	-re-	.	8cc\	-re-	.	1ryy	1ryy	4b-/	.	4cc\	.
.	.	.	.	.	16g/LL	.	16cc\LL	.	.	.	.	.	.	.	.	.	.	.	.	.	.	.	.	.	.	.
.	8r	.	8r	.	16g/	.	16cc\	.	8E-\	-re	.	8B-\	-re	.	8g\	-re	.	8cc\	-re	.	.	.	.	.	.	.
.	.	.	.	.	16g/JJ	.	16cc\JJ	.	.	.	.	.	.	.	.	.	.	.	.	.	.	.	.	.	.	.
!	!	!	!	!	!	!	!	!LO:DY:a	!	!	!	!	!	!	!	!	!	!	!	!	!	!	!	!	!	!
.	8F\	.	8f\	.	16r	.	16r	f	4F\	no-	.	8A\	no-	.	8f\	no-	.	4cc\	no-	.	.	.	4a/	.	4cc\	.
.	.	.	.	.	16a/LL	.	16cc\LL	.	.	.	.	.	.	.	.	.	.	.	.	.	.	.	.	.	.	.
.	8r	.	8ryy	.	16a/	.	16cc\	.	.	.	.	8A\	-biſ	.	8f\	-bis	.	.	.	.	.	.	.	.	.	.
.	.	.	.	.	16a/JJ	.	16cc\JJ	.	.	.	.	.	.	.	.	.	.	.	.	.	.	.	.	.	.	.
!	!	!LO:DY:a:t=for&colon;	!	!	!	!	!	!	!LO:LB:g=original	!	!LO:DY:a	!	!	!LO:DY:a	!	!	!LO:DY:a	!	!	!	!	!	!	!	!LO:LB:g=original	!
.	4BB-/	f	4f\	.	8b-/	.	16b-\LL	.	4BB-/	-bis	f	4B-\	Qui	f	4f\	qui	f	4b-\	-bis	.	.	.	4b-/	.	4b-\	.
!	!	!	!	!	!	!	!	!LO:DY:a	!	!	!	!	!	!	!	!	!	!	!	!	!	!	!	!	!	!
.	.	.	.	.	.	.	16ff\	p	.	.	.	.	.	.	.	.	.	.	.	.	.	.	.	.	.	.
.	.	.	.	.	8r	.	16gg\	.	.	.	.	.	.	.	.	.	.	.	.	.	.	.	.	.	.	.
.	.	.	.	.	.	.	16ff\JJ	.	.	.	.	.	.	.	.	.	.	.	.	.	.	.	.	.	.	.
!	!	!	!	!	!	!	!	!	!	!	!	!	!	!	!	!	!	!	!	!LO:DY:a	!	!	!	!	!	!
.	4r	.	4r	.	4r	.	16ee-\LL	.	4r	.	.	4r	.	.	4r	.	.	4r	.	f	.	.	4r	.	4r	.
.	.	.	.	.	.	.	16dd\	.	.	.	.	.	.	.	.	.	.	.	.	.	.	.	.	.	.	.
.	.	.	.	.	.	.	16cc\	.	.	.	.	.	.	.	.	.	.	.	.	.	.	.	.	.	.	.
.	.	.	.	.	.	.	16b-\JJ	.	.	.	.	.	.	.	.	.	.	.	.	.	.	.	.	.	.	.
!	!	!	!	!	!	!	!	!	!	!	!	!	!	!	!	!	!	!	!	!	!	!	!LO:LB:g=original	!	!	!
=13	=13	=13	=13	=13	=13	=13	=13	=13	=13	=13	=13	=13	=13	=13	=13	=13	=13	=13	=13	=13	=13	=13	=13	=13	=13	=13
!	!	!	!	!	!	!	!	!LO:DY:a	!	!	!	!	!	!	!	!	!	!	!	!	!	!	!	!	!	!LO:DY:a:rj
1ryy	8r	.	8r	.	8r	.	16a/LL	f	8r	.	.	8r	.	.	8r	.	.	8r	.	.	1ryy	1ryy	8r	.	8r	f
.	.	.	.	.	.	.	16b-/	.	.	.	.	.	.	.	.	.	.	.	.	.	.	.	.	.	.	.
!	!	!	!LO:LB:g=original	!LO:DY:a	!	!LO:DY:a	!	!	!	!	!	!	!	!	!	!	!	!	!	!	!	!	!	!LO:DY:a	!	!
.	8D/L	.	8B-/L	f	8f/L	f	16f/	.	8D/	pec-	.	8B-\	tol-	.	8f\	tol-	.	8b-\	tol-	.	.	.	8f/L	f	8b-\L	.
.	.	.	.	.	.	.	16b-/JJ	.	.	.	.	.	.	.	.	.	.	.	.	.	.	.	.	.	.	.
.	8C/	.	8An/	.	8f/	.	16cc\LL	.	8C/	-ca-	.	8A\	-liſ	.	8f\	-lis	.	8cc\	-lis	.	.	.	8f/	.	8cc\	.
.	.	.	.	.	.	.	16f\	.	.	.	.	.	.	.	.	.	.	.	.	.	.	.	.	.	.	.
.	8BB-/J	.	8B-/J	.	8f/J	.	16dd\	.	8BB-/	-ta	.	8B-\	pec-	.	8f\	pec-	.	8dd\	pec-	.	.	.	8f/J	.	8dd\J	.
.	.	.	.	.	.	.	16f\JJ	.	.	.	.	.	.	.	.	.	.	.	.	.	.	.	.	.	.	.
!	!LO:TX:t=P:problem=mixed beam	!	!	!	!	!	!LO:TX:a:t=t	!	!	!	!	!	!	!	!	!	!	!	!	!	!	!	!	!	!	!
.	8F\L	.	8f\L	.	8b-/L	.	8dd\L	.	8F\	mun-	.	8B-\	-ca-	.	8f\	-ca-	.	8dd\	-ca-	.	.	.	8b-/L	.	8dd\L	.
.	8FF/J	.	8f\J	.	8a/J	.	8cc\J	.	8F\	-di	.	8A\	-ta	.	8f\	-ta	.	8cc\	-ta	.	.	.	8a/J	.	8cc\J	.
.	4FF/	.	4F/	.	4r	.	4r	.	4r	.	.	4r	.	.	4r	.	.	4r	.	.	.	.	4a/	.	4cc\	.
=14	=14	=14	=14	=14	=14	=14	=14	=14	=14	=14	=14	=14	=14	=14	=14	=14	=14	=14	=14	=14	=14	=14	=14	=14	=14	=14
!	!	!LO:DY:a	!	!LO:DY:a	!	!LO:DY:a	!	!LO:DY:a	!	!	!	!	!	!	!	!	!LO:DY:a	!	!	!LO:DY:a:rj	!	!	!	!	!	!LO:DY:a:t=pia&colon;
1ryy	8F\	p	4r	p	24f/LL	p	24aa'\LL	p	8r	.	.	8r	.	.	8r	.	p	8r	.	p	1ryy	1ryy	4r	.	4r	p
.	.	.	.	.	24cc/	.	24ccc'\	.	.	.	.	.	.	.	.	.	.	.	.	.	.	.	.	.	.	.
.	.	.	.	.	24b-/JJ	.	24bb-'\JJ	.	.	.	.	.	.	.	.	.	.	.	.	.	.	.	.	.	.	.
*	*	*	*	*	*	*	*	*	*	*	*	*	*ij	*	*	*	*	*	*	*	*	*	*	*	*	*
!	!	!	!	!	!	!	!	!	!	!	!LO:DY:a	!	!	!LO:DY:a	!	!	!	!	!	!	!	!	!	!	!	!
.	8r	.	.	.	24a/LL	.	24aa'\LL	.	8A\	pec-	p	8c\	pec-	p	8f\	pec-	.	8ee-X\	pec-	.	.	.	.	.	.	.
.	.	.	.	.	24g/	.	24gg'\	.	.	.	.	.	.	.	.	.	.	.	.	.	.	.	.	.	.	.
.	.	.	.	.	24f/JJ	.	24ff'\JJ	.	.	.	.	.	.	.	.	.	.	.	.	.	.	.	.	.	.	.
!	!	!	!	!	!	!	!	!	!	!	!	!	!	!	!	!	!	!	!	!	!	!	!	!LO:DY:a	!	!
.	8A\	.	4c/	.	4f/	.	16ee-\LL	.	8A\	-ca-	.	8c\	-ca-	.	8f\	-ca-	.	8ee-\	-ca-	.	.	.	4cc\	p	4ee-\	.
.	.	.	.	.	.	.	32dd\L	.	.	.	.	.	.	.	.	.	.	.	.	.	.	.	.	.	.	.
.	.	.	.	.	.	.	32ee-\J	.	.	.	.	.	.	.	.	.	.	.	.	.	.	.	.	.	.	.
.	8r	.	.	.	.	.	16ff\	.	8A\	-ta	.	8c\	-ta	.	8f\	-ta	.	8ee-\	-ta	.	.	.	.	.	.	.
*	*	*	*	*	*	*	*	*	*	*	*	*	*Xij	*	*	*	*	*	*	*	*	*	*	*	*	*
.	.	.	.	.	.	.	16ee-\JJ	.	.	.	.	.	.	.	.	.	.	.	.	.	.	.	.	.	.	.
.	8B-\	.	4B-/	.	(16f/LL	.	(16dd\LL	.	4B-\	mun-	.	4B-\	mun-	.	4f\	mun-	.	4dd\	mun-	.	.	.	4f/	.	4dd\	.
.	.	.	.	.	16b-/)	.	16bb-\)	.	.	.	.	.	.	.	.	.	.	.	.	.	.	.	.	.	.	.
.	8r	.	.	.	16b-|/	.	16bb-|\	.	.	.	.	.	.	.	.	.	.	.	.	.	.	.	.	.	.	.
.	.	.	.	.	16b-|/JJ	.	16bb-|\JJ	.	.	.	.	.	.	.	.	.	.	.	.	.	.	.	.	.	.	.
.	8BB-/	.	4B-/	.	24b-'/LL	.	24bb-'\LL	.	4BB-/	-di	.	4B-\	-di	.	4f\	-di	.	4dd\	-di	.	.	.	4f/	.	4dd\	.
.	.	.	.	.	24a'/	.	24aa'\	.	.	.	.	.	.	.	.	.	.	.	.	.	.	.	.	.	.	.
.	.	.	.	.	24g'/JJ	.	24gg'\JJ	.	.	.	.	.	.	.	.	.	.	.	.	.	.	.	.	.	.	.
.	8r	.	.	.	24f'/LL	.	24ff'\LL	.	.	.	.	.	.	.	.	.	.	.	.	.	.	.	.	.	.	.
.	.	.	.	.	24e-'/	.	24ee-'\	.	.	.	.	.	.	.	.	.	.	.	.	.	.	.	.	.	.	.
.	.	.	.	.	24d'/JJ	.	24dd'\JJ	.	.	.	.	.	.	.	.	.	.	.	.	.	.	.	.	.	.	.
=15	=15	=15	=15	=15	=15	=15	=15	=15	=15	=15	=15	=15	=15	=15	=15	=15	=15	=15	=15	=15	=15	=15	=15	=15	=15	=15
1ryy	8F#X\	.	4d\	.	(16c/LL	.	(16cc\LL	.	8F#X\	ſuſ-	.	8A\	ſuſ-	.	8d\	suſ-	.	8cc\	Sus-	.	1ryy	1ryy	4r	.	4r	.
.	.	.	.	.	16a/)	.	16aa\)	.	.	.	.	.	.	.	.	.	.	.	.	.	.	.	.	.	.	.
.	8r	.	.	.	16a|/	.	16aa|\	.	16F#\	-ci-	.	16A\	-ci-	.	16d\	-ci-	.	16cc\	-ci-	.	.	.	.	.	.	.
.	.	.	.	.	16a|/JJ	.	16aa|\JJ	.	16F#\	-pe	.	16A\	-pe	.	16d\	-pe	.	16cc\	-pe	.	.	.	.	.	.	.
.	8F#\	.	4d\	.	24a'/LL	.	24aa'\LL	.	8F#\	De-	.	8A\	De-	.	8d\	de-	.	8cc\	de-	.	.	.	4a/	.	4cc\	.
.	.	.	.	.	24g'/	.	24gg'\	.	.	.	.	.	.	.	.	.	.	.	.	.	.	.	.	.	.	.
.	.	.	.	.	24f#X'/JJ	.	24ff#X'\JJ	.	.	.	.	.	.	.	.	.	.	.	.	.	.	.	.	.	.	.
*	*	*	*	*	*	*	*	*	*	*	*	*custos:d	*	*	*	*	*	*	*	*	*	*	*	*	*	*
.	8r	.	.	.	24e-/LL	.	24ee-'\LL	.	8F#\	-pre-	.	8A\	-pre-	.	8d\	-pre-	.	8cc\	-pre-	.	.	.	.	.	.	.
.	.	.	.	.	24d/	.	24dd'\	.	.	.	.	.	.	.	.	.	.	.	.	.	.	.	.	.	.	.
.	.	.	.	.	24c/JJ	.	24cc'\JJ	.	.	.	.	.	.	.	.	.	.	.	.	.	.	.	.	.	.	.
!	!	!	!	!	!	!	!LO:LB:g=original	!	!	!	!	!LO:LB:g=original	!	!	!	!	!	!	!	!	!	!	!	!	!	!
.	8G\	.	4d\	.	16B-/LL	.	(16b-\LL	.	8G\	-ca-	.	8d\	-ca-	.	8g\	-ca-	.	8b-\	-ca-	.	.	.	4d/	.	4b-\	.
.	.	.	.	.	16g/	.	16gg\)	.	.	.	.	.	.	.	.	.	.	.	.	.	.	.	.	.	.	.
.	8r	.	.	.	16g/	.	16gg|\	.	8G\	-ti-	.	8d\	-ti-	.	8g\	-ti-	.	8b-\	-ti-	.	.	.	.	.	.	.
.	.	.	.	.	16g/JJ	.	16gg|\JJ	.	.	.	.	.	.	.	.	.	.	.	.	.	.	.	.	.	.	.
.	8GG/	.	4en\	.	16g/LL	.	(16gg\LL	.	8C#X/	-o-	.	8en\	-o-	.	8g\	-o-	.	8b-\	-o-	.	.	.	4d/	.	4b-\	.
.	.	.	.	.	16g/	.	16b-\)	.	.	.	.	.	.	.	.	.	.	.	.	.	.	.	.	.	.	.
*	*	*	*	*	*	*	*	*	*	*	*	*	*	*	*custos:g	*	*	*	*	*	*	*	*	*	*	*
.	8r	.	.	.	16g/	.	16b-|\	.	8C#/	-nem	.	8e\	-nem	.	8g\	-nem	.	8b-\	-nem	.	.	.	.	.	.	.
.	.	.	.	.	16g/JJ	.	16b-|\JJ	.	.	.	.	.	.	.	.	.	.	.	.	.	.	.	.	.	.	.
!	!	!	!	!	!LO:LB:g=original	!	!	!	!	!	!	!	!	!	!LO:LB:g=original	!	!	!	!	!	!	!	!	!	!	!
=16	=16	=16	=16	=16	=16	=16	=16	=16	=16	=16	=16	=16	=16	=16	=16	=16	=16	=16	=16	=16	=16	=16	=16	=16	=16	=16
1ryy	8D\L	.	8d\L	.	4f#X/	.	4a/	.	8D\	noſ-	.	8d\	noſ-	.	8f#X\	nos-	.	8a\	nos-	.	1ryy	1ryy	4f#X/	.	4a/	.
!	!	!LO:DY:a	!	!	!	!	!	!	!	!	!	!	!	!	!	!	!	!	!	!	!	!	!	!	!	!
.	16D\L	f	16d\L	.	.	.	.	.	8D\	-tram	.	8d\	-tram	.	8f#\	-tram	.	8a\	-tram	.	.	.	.	.	.	.
.	16E-\JJ	.	16e-X\JJ	.	.	.	.	.	.	.	.	.	.	.	.	.	.	.	.	.	.	.	.	.	.	.
.	16D/LL	.	16d\LL	.	4r	.	4r	.	4r	.	.	4r	.	.	4r	.	.	4r	.	.	.	.	4r	.	4r	.
.	16C/	.	16c\	.	.	.	.	.	.	.	.	.	.	.	.	.	.	.	.	.	.	.	.	.	.	.
.	16BB-/	.	16B-\	.	.	.	.	.	.	.	.	.	.	.	.	.	.	.	.	.	.	.	.	.	.	.
.	16AA/JJ	.	16A\JJ	.	.	.	.	.	.	.	.	.	.	.	.	.	.	.	.	.	.	.	.	.	.	.
!	!	!	!	!	!	!	!	!	!	!	!	!	!	!	!	!	!	!LO:TX:a:i:t=Solo.	!	!	!	!	!	!	!	!
.	4GG/	.	4G/	.	4b-\	.	16r	.	2r	.	.	2r	.	.	2r	.	.	8dd\L	Qui	.	.	.	2r	.	2r	.
.	.	.	.	.	.	.	16dd\LL	.	.	.	.	.	.	.	.	.	.	.	.	.	.	.	.	.	.	.
.	.	.	.	.	.	.	16ee-\	.	.	.	.	.	.	.	.	.	.	16ee-\L	.	.	.	.	.	.	.	.
*	*	*	*	*	*	*	*	*	*	*	*	*	*	*	*	*	*	*custos:cc	*	*	*	*	*	*	*	*
.	.	.	.	.	.	.	16dd\JJ	.	.	.	.	.	.	.	.	.	.	16dd\JJ	.	.	.	.	.	.	.	.
!	!	!	!	!	!	!	!	!	!	!	!	!	!	!	!	!	!	!LO:PB:g=original	!	!	!	!	!	!	!	!
.	8r	.	4r	.	8r	.	16cc\LL	.	.	.	.	.	.	.	.	.	.	16cc\LL	se-	.	.	.	.	.	.	.
.	.	.	.	.	.	.	16b-\	.	.	.	.	.	.	.	.	.	.	16b-\	.	.	.	.	.	.	.	.
!	!	!LO:DY:a	!	!	!	!	!	!	!	!	!	!	!	!	!	!	!	!	!	!	!	!	!	!	!	!
.	8G\	p	.	.	8B-/	.	16a\	.	.	.	.	.	.	.	.	.	.	16a\	.	.	.	.	.	.	.	.
.	.	.	.	.	.	.	16g\JJ	.	.	.	.	.	.	.	.	.	.	16g\JJ	.	.	.	.	.	.	.	.
=17	=17	=17	=17	=17	=17	=17	=17	=17	=17	=17	=17	=17	=17	=17	=17	=17	=17	=17	=17	=17	=17	=17	=17	=17	=17	=17
*	*2\right	*	*2\right	*	*	*	*	*	*	*	*	*	*	*	*	*	*	*	*	*	*	*	*	*	*	*
*	*tremolo	*	*tremolo	*	*	*	*	*	*	*	*	*	*	*	*	*	*	*	*	*	*	*	*	*	*	*
1ryy	8A\L	.	8d\L	.	8c/L	.	16g/LL	.	1r	.	.	1r	.	.	1r	.	.	8g/L	-des	.	1ryy	1ryy	1r	.	1r	.
!	!	!	!	!	!	!	!LO:SIC:v:s=16f#/J	!	!	!	!	!	!	!	!	!	!	!	!	!	!	!	!	!	!	!
.	.	.	.	.	.	.	16f/J	.	.	.	.	.	.	.	.	.	.	.	.	.	.	.	.	.	.	.
!	!	!	!	!	!	!	!LO:SIC:v:s=8f#/J	!	!	!	!	!	!	!	!	!	!	!	!	!	!	!	!	!	!	!
.	8A\	.	8d\	.	8c/	.	8f/J	.	.	.	.	.	.	.	.	.	.	8f#X/J	.	.	.	.	.	.	.	.
!	!	!	!	!	!	!	!LO:SIC:v:s=16f#/LL	!	!	!	!	!	!	!	!	!	!	!LO:SIC:v:l:s=ad	!	!	!	!	!	!	!	!
.	8A\	.	8d\	.	8c/	.	16f/LL	.	.	.	.	.	.	.	.	.	.	16f#/LL	a	.	.	.	.	.	.	.
.	.	.	.	.	.	.	16g/	.	.	.	.	.	.	.	.	.	.	16g/JJ	.	.	.	.	.	.	.	.
.	8A\J	.	8d\J	.	8c/J	.	16a/	.	.	.	.	.	.	.	.	.	.	16a\LL	.	.	.	.	.	.	.	.
.	.	.	.	.	.	.	16b-/JJ	.	.	.	.	.	.	.	.	.	.	16b-\JJ	.	.	.	.	.	.	.	.
.	8F#X\L	.	8A/L	.	8d/L	.	8cc\L	.	.	.	.	.	.	.	.	.	.	4cc\	dex-	.	.	.	.	.	.	.
.	8F#\	.	8A/	.	8d/	.	8cc\J	.	.	.	.	.	.	.	.	.	.	.	.	.	.	.	.	.	.	.
.	8F#\	.	8A/	.	8d/	.	16cc\LL	.	.	.	.	.	.	.	.	.	.	16cc\LL	-te-	.	.	.	.	.	.	.
.	.	.	.	.	.	.	32dd\L	.	.	.	.	.	.	.	.	.	.	16ee-\JJ	.	.	.	.	.	.	.	.
.	.	.	.	.	.	.	32ee-\JJJ	.	.	.	.	.	.	.	.	.	.	.	.	.	.	.	.	.	.	.
.	8F#\J	.	8A/J	.	8d/J	.	16dd\LL	.	.	.	.	.	.	.	.	.	.	16dd\LL	-ram	.	.	.	.	.	.	.
.	.	.	.	.	.	.	16cc\JJ	.	.	.	.	.	.	.	.	.	.	16cc\JJ	.	.	.	.	.	.	.	.
*	*Xtremolo	*	*Xtremolo	*	*	*	*	*	*	*	*	*	*	*	*	*	*	*	*	*	*	*	*	*	*	*
!	!LO:LB:g=original	!	!	!	!	!	!	!	!LO:LB:g=original	!	!	!	!	!	!	!	!	!	!	!	!	!	!	!	!	!
=18	=18	=18	=18	=18	=18	=18	=18	=18	=18	=18	=18	=18	=18	=18	=18	=18	=18	=18	=18	=18	=18	=18	=18	=18	=18	=18
!	!LO:TX:t=P:problem=mixed beam	!	!	!	!	!	!LO:TX:a:t=t	!	!	!	!	!	!	!	!	!	!	!	!	!	!	!	!	!	!	!LO:DY:a:t=f.
1ryy	8G\L	.	4A/	.	4d/	.	4cc\	.	2r	.	.	2r	.	.	2r	.	.	4cc\	pa-	.	1ryy	1ryy	2r	.	2r	f
.	8G\	.	.	.	.	.	.	.	.	.	.	.	.	.	.	.	.	.	.	.	.	.	.	.	.	.
.	8GG/	.	4G/	.	4d/	.	4b-\	.	.	.	.	.	.	.	.	.	.	4b-\	-tris	.	.	.	.	.	.	.
.	8GG/J	.	.	.	.	.	.	.	.	.	.	.	.	.	.	.	.	.	.	.	.	.	.	.	.	.
*	*tremolo	*	*tremolo	*	*	*	*	*	*	*	*	*	*	*	*	*	*	*	*	*	*	*	*	*	*	*
!	!	!	!	!LO:DY:a:t=for&colon;	!	!LO:DY:a	!	!LO:DY:a	!	!	!	!	!	!	!	!	!LO:DY:a	!	!	!	!	!	!	!LO:DY:a:t=for&colon;	!	!
.	8C#X/L	.	8en\L	f	16b-\LL	f	16gg\LL	f	8r	.	.	8r	.	.	8r	.	f	8r	.	.	.	.	2b-\	f	2gg\	.
.	.	.	.	.	16b-\	.	16gg\	.	.	.	.	.	.	.	.	.	.	.	.	.	.	.	.	.	.	.
!	!	!	!	!	!	!	!	!	!	!	!LO:DY:a	!	!	!	!	!	!	!	!	!LO:DY:a:t=f.	!	!	!	!	!	!
.	8C#/	.	8e\	.	16b-\	.	16gg\	.	4C#X/	mi-	f	4en\	mi-	.	4g\	mi-	.	4b-\	mi-	f	.	.	.	.	.	.
.	.	.	.	.	16b-\JJ	.	16gg\JJ	.	.	.	.	.	.	.	.	.	.	.	.	.	.	.	.	.	.	.
.	8C#/	.	8e\	.	16b-\LL	.	16gg\LL	.	.	.	.	.	.	.	.	.	.	.	.	.	.	.	.	.	.	.
.	.	.	.	.	16b-\	.	16gg\	.	.	.	.	.	.	.	.	.	.	.	.	.	.	.	.	.	.	.
.	8C#/J	.	8e\J	.	16b-\	.	16gg\	.	8C#/	-ſe-	.	8e\	-ſe-	.	8g\	-se-	.	8b-\	-se-	.	.	.	.	.	.	.
.	.	.	.	.	16b-\JJ	.	16gg\JJ	.	.	.	.	.	.	.	.	.	.	.	.	.	.	.	.	.	.	.
=19	=19	=19	=19	=19	=19	=19	=19	=19	=19	=19	=19	=19	=19	=19	=19	=19	=19	=19	=19	=19	=19	=19	=19	=19	=19	=19
*	*	*	*	*	*tremolo	*	*	*	*	*	*	*	*	*	*	*	*	*	*	*	*	*	*	*	*	*
1ryy	8D\L	.	8d\L	.	16a/LL	.	16ff#X\LL	.	4D\	-re-	.	4d\	-re-	.	4f#X\	-re-	.	4a\	-re-	.	1ryy	1ryy	4a/	.	4ff#X\	.
.	.	.	.	.	16a/	.	16ff#\	.	.	.	.	.	.	.	.	.	.	.	.	.	.	.	.	.	.	.
.	8D\	.	8d\	.	16a/	.	16ff#\	.	.	.	.	.	.	.	.	.	.	.	.	.	.	.	.	.	.	.
.	.	.	.	.	16a/JJ	.	16ff#\JJ	.	.	.	.	.	.	.	.	.	.	.	.	.	.	.	.	.	.	.
.	8D\	.	8d\	.	16b-\LL	.	16gg\LL	.	4D\	-re	.	4d\	-re	.	4g\	-re	.	4b-\	-re	.	.	.	4b-/	.	4gg\	.
.	.	.	.	.	16b-\	.	16gg\	.	.	.	.	.	.	.	.	.	.	.	.	.	.	.	.	.	.	.
.	8D\J	.	8d\J	.	16b-\	.	16gg\	.	.	.	.	.	.	.	.	.	.	.	.	.	.	.	.	.	.	.
.	.	.	.	.	16b-\JJ	.	16gg\JJ	.	.	.	.	.	.	.	.	.	.	.	.	.	.	.	.	.	.	.
*	*	*	*	*	*	*	*	*	*2\right	*	*	*2\right	*	*	*	*	*	*2\right	*	*	*	*	*	*	*	*
.	8D\L	.	8d\L	.	16a/LL	.	16gg\LL	.	2D\	no-	.	2d\	no-	.	(4g\	no-	.	2a\	no-	.	.	.	2a/	.	4gg\	.
.	.	.	.	.	16a/	.	16gg\	.	.	.	.	.	.	.	.	.	.	.	.	.	.	.	.	.	.	.
.	8D\	.	8d\	.	16a/	.	16gg\	.	.	.	.	.	.	.	.	.	.	.	.	.	.	.	.	.	.	.
.	.	.	.	.	16a/	.	16gg\JJ	.	.	.	.	.	.	.	.	.	.	.	.	.	.	.	.	.	.	.
.	8D\	.	8d\	.	16a/	.	16ff#X\LL	.	.	.	.	.	.	.	4f#X\)	.	.	.	.	.	.	.	.	.	4ff#X\	.
.	.	.	.	.	16a/	.	16ff#\	.	.	.	.	.	.	.	.	.	.	.	.	.	.	.	.	.	.	.
.	8D\J	.	8d\J	.	16a/	.	16ff#\	.	.	.	.	.	.	.	.	.	.	.	.	.	.	.	.	.	.	.
.	.	.	.	.	16a/JJ	.	16ff#\JJ	.	.	.	.	.	.	.	.	.	.	.	.	.	.	.	.	.	.	.
*	*Xtremolo	*	*Xtremolo	*	*Xtremolo	*	*	*	*	*	*	*	*	*	*	*	*	*	*	*	*	*	*	*	*	*
!	!	!	!	!	!	!	!LO:LB:g=original	!	!	!	!	!	!	!	!	!	!	!	!	!	!	!	!	!	!	!
=20	=20	=20	=20	=20	=20	=20	=20	=20	=20	=20	=20	=20	=20	=20	=20	=20	=20	=20	=20	=20	=20	=20	=20	=20	=20	=20
1ryy	4GG/	.	4d\	.	4b-/	.	4gg\	.	4GG/	-biſ	.	4d\	-biſ	.	4g\	-bis	.	4b-\	-bis	.	1ryy	1ryy	4b-/	.	4gg\	.
!	!	!	!	!LO:DY:a:t=pia&colon;	!	!	!	!LO:DY:a:rj:t=pia&colon;	!	!	!	!	!	!	!	!	!	!	!	!	!	!	!	!	!	!
.	8GG/	.	4Bn/	p	4r	.	16gg\LL	p	4r	.	.	4r	.	.	4r	.	.	4r	.	.	.	.	4r	.	4r	.
.	.	.	.	.	.	.	16ffn\	.	.	.	.	.	.	.	.	.	.	.	.	.	.	.	.	.	.	.
.	8r	.	.	.	.	.	16ee-\	.	.	.	.	.	.	.	.	.	.	.	.	.	.	.	.	.	.	.
.	.	.	.	.	.	.	16dd\JJ	.	.	.	.	.	.	.	.	.	.	.	.	.	.	.	.	.	.	.
!	!	!	!	!	!	!LO:DY:a:t=pia&colon;	!	!	!	!	!	!	!	!	!	!	!	!	!	!	!	!	!	!	!	!
.	8GG/	.	4c/	.	4r	p	16ff\LL	.	2r	.	.	2r	.	.	2r	.	.	2r	.	.	.	.	2r	.	2r	.
.	.	.	.	.	.	.	16ee-\	.	.	.	.	.	.	.	.	.	.	.	.	.	.	.	.	.	.	.
.	8r	.	.	.	.	.	16dd\	.	.	.	.	.	.	.	.	.	.	.	.	.	.	.	.	.	.	.
.	.	.	.	.	.	.	16cc\JJ	.	.	.	.	.	.	.	.	.	.	.	.	.	.	.	.	.	.	.
.	8GG/	.	4d/	.	(16g/LL	.	4bn\	.	.	.	.	.	.	.	.	.	.	.	.	.	.	.	.	.	.	.
.	.	.	.	.	16f/	.	.	.	.	.	.	.	.	.	.	.	.	.	.	.	.	.	.	.	.	.
.	8r	.	.	.	16e-/	.	.	.	.	.	.	.	.	.	.	.	.	.	.	.	.	.	.	.	.	.
.	.	.	.	.	16d/JJ)	.	.	.	.	.	.	.	.	.	.	.	.	.	.	.	.	.	.	.	.	.
=21	=21	=21	=21	=21	=21	=21	=21	=21	=21	=21	=21	=21	=21	=21	=21	=21	=21	=21	=21	=21	=21	=21	=21	=21	=21	=21
1ryy	8GG/	.	4G/	.	16f/LL	.	4cc\	.	0r	.	.	1r	.	.	0r	.	.	0r	.	.	1ryy	1ryy	0r	.	0r	.
.	.	.	.	.	16e-/	.	.	.	.	.	.	.	.	.	.	.	.	.	.	.	.	.	.	.	.	.
.	8r	.	.	.	16d/	.	.	.	.	.	.	.	.	.	.	.	.	.	.	.	.	.	.	.	.	.
.	.	.	.	.	16c/JJ	.	.	.	.	.	.	.	.	.	.	.	.	.	.	.	.	.	.	.	.	.
.	8GG/	.	(16g\LL	.	4Bn/	.	4dd\	.	.	.	.	.	.	.	.	.	.	.	.	.	.	.	.	.	.	.
.	.	.	16f\	.	.	.	.	.	.	.	.	.	.	.	.	.	.	.	.	.	.	.	.	.	.	.
.	8r	.	16e-\	.	.	.	.	.	.	.	.	.	.	.	.	.	.	.	.	.	.	.	.	.	.	.
.	.	.	16d\JJ)	.	.	.	.	.	.	.	.	.	.	.	.	.	.	.	.	.	.	.	.	.	.	.
.	8GG/	.	(16f\LL	.	4c/	.	4ee-\	.	.	.	.	.	.	.	.	.	.	.	.	.	.	.	.	.	.	.
.	.	.	16e-\	.	.	.	.	.	.	.	.	.	.	.	.	.	.	.	.	.	.	.	.	.	.	.
.	8r	.	16d\	.	.	.	.	.	.	.	.	.	.	.	.	.	.	.	.	.	.	.	.	.	.	.
.	.	.	16c\JJ)	.	.	.	.	.	.	.	.	.	.	.	.	.	.	.	.	.	.	.	.	.	.	.
.	8GG/	.	4A/	.	4d/	.	4f#X/	.	.	.	.	.	.	.	.	.	.	.	.	.	.	.	.	.	.	.
.	8r	.	.	.	.	.	.	.	.	.	.	.	.	.	.	.	.	.	.	.	.	.	.	.	.	.
=22	=22	=22	=22	=22	=22	=22	=22	=22	=22	=22	=22	=22	=22	=22	=22	=22	=22	=22	=22	=22	=22	=22	=22	=22	=22	=22
1ryy	2GG/	.	2Bn;/	.	2d/	.	2g/	.	.	.	.	1r	.	.	.	.	.	.	.	.	1ryy	1ryy	.	.	.	.
.	2r	.	2r	.	2r	.	2r	.	.	.	.	.	.	.	.	.	.	.	.	.	.	.	.	.	.	.
==	==	==	==	==	==	==	==	==	==	==	==	==	==	==	==	==	==	==	==	==	==	==	==	==	==	==
*-	*-	*-	*-	*-	*-	*-	*-	*-	*-	*-	*-	*-	*-	*-	*-	*-	*-	*-	*-	*-	*-	*-	*-	*-	*-	*-
!!!system-decoration: [(g1)][(g2)][(g3)][(g4)]<s13>
!!!RDF**kern: | = vertical stroke
!!!RDF**dynam: f = "f:"
!!!RDF**dynam: p = "p:"
!!!RDF**dynam: pp = "pp."
!!!ENC: Andrzej Borzym
!!!END: 2020-09-17
!!!ENC: Andrzej Kubiczek
!!!END: 2022-02-01
